X: 2320
M: 6/8
L: 1/8
K: D
uf |\
vd2vF FGF | ABc def | edc dcB | vA2vE uE2uf |\
vd2vF FGF | ABc def | edc dcB | vA2vF uF2uf |\
vd2vF FGF | ABc def | edc dcB |
vA2vE uE2uf |\
vd2vF FGF | ABc def | edc dcB | vA2vF uF2 |]\
ud |\
edc dcB | A2F F2 ud |\


